packages/product-components/src/images/networks/btc_test.svg

<svg width="32" height="32" viewBox="0 0 32 32" fill="none" xmlns="http://www.w3.org/2000/svg">
<path d="M0 8C0 3.58172 3.58172 0 8 0H24C28.4183 0 32 3.58172 32 8V24C32 28.4183 28.4183 32 24 32H8C3.58172 32 0 28.4183 0 24V8Z" fill="#E75F5F"/>
<path fill-rule="evenodd" clip-rule="evenodd" d="M11.117 8.07362L11.1283 8.0768C11.1023 8.0965 11.0912 8.10419 11.0903 8.10316C11.0894 8.10206 11.1003 8.09083 11.117 8.07362ZM11.2273 8.10391L11.2614 7.97455C11.1977 8.02369 11.1551 8.05658 11.1283 8.0768C11.1613 8.08602 11.1943 8.09505 11.2273 8.10391ZM11.2273 8.10391C11.1665 8.33657 11.1056 8.57663 11.0448 8.8167C10.9726 9.10155 10.9004 9.38639 10.8282 9.65886C10.7801 9.75793 10.8282 9.80747 10.9245 9.80747C11 9.8269 11.0774 9.84634 11.1562 9.86614L11.1562 9.86615L11.1562 9.86615C11.4794 9.94732 11.8276 10.0348 12.1757 10.1542C12.6089 10.3029 12.8495 10.7487 12.7532 11.145C12.1757 13.721 11.5501 16.2475 10.9245 18.7739L10.9245 18.7739C10.8764 19.1207 10.5876 19.3189 10.2026 19.2198C9.86574 19.1702 9.48074 19.0712 9.14386 18.9721C8.99949 18.9721 8.95136 18.9721 8.90324 19.1207C8.75887 19.517 8.56637 19.9628 8.37387 20.4087L8.37386 20.4087C8.32574 20.5078 8.28965 20.5945 8.25355 20.6812C8.21746 20.7679 8.18136 20.8545 8.13324 20.9536C9.28824 21.2509 10.3951 21.5481 11.502 21.8453C11.502 21.9034 11.4855 21.9444 11.4718 21.9784C11.4621 22.0024 11.4539 22.023 11.4539 22.0435C11.2132 22.8361 11.0207 23.6782 10.8282 24.5204C10.7801 24.6195 10.7801 24.669 10.9245 24.7185C11.4057 24.8176 11.887 24.9167 12.3682 25.0653C12.4954 25.109 12.5106 25.0757 12.5453 24.9994C12.55 24.9891 12.555 24.978 12.5607 24.9662C12.6089 24.7433 12.669 24.5204 12.7292 24.2975L12.7292 24.2974C12.7893 24.0745 12.8495 23.8516 12.8976 23.6287C12.9457 23.4058 13.0059 23.1829 13.0661 22.9599C13.1262 22.737 13.1864 22.5141 13.2345 22.2912C13.6676 22.3902 14.0526 22.4893 14.4376 22.5884C14.507 22.6241 14.5014 22.6598 14.4928 22.7141C14.4895 22.7351 14.4857 22.7589 14.4857 22.7865C14.2451 23.5792 14.0526 24.4213 13.8601 25.2635C13.812 25.3625 13.812 25.4121 13.9564 25.4616C14.1729 25.5112 14.4015 25.5731 14.6301 25.635C14.8587 25.6969 15.0873 25.7589 15.3039 25.8084C15.5341 25.9032 15.544 25.8619 15.5866 25.6845L15.5926 25.6598C15.6889 25.2635 15.7851 24.8548 15.8814 24.4461C15.9776 24.0374 16.0739 23.6287 16.1701 23.2324C16.2182 23.0838 16.3145 23.0342 16.4589 23.0838C17.4214 23.2324 18.3839 23.3315 19.3945 23.1829C20.1645 23.0838 20.8382 22.737 21.3676 22.093C21.8007 21.5481 22.0414 20.9536 22.2339 20.2601C22.3782 19.7152 22.4264 19.1207 22.3301 18.5758C22.1376 17.8822 21.7526 17.3373 21.1751 16.8915C21.0789 16.8172 20.9826 16.7552 20.8864 16.6933C20.7901 16.6314 20.6939 16.5695 20.5976 16.4952C20.654 16.4952 20.6939 16.4782 20.7269 16.4641C20.7502 16.4541 20.7702 16.4456 20.7901 16.4456C21.1751 16.297 21.5601 16.0989 21.8489 15.8016C22.2339 15.4053 22.4264 14.9099 22.5707 14.365C22.7632 13.5724 22.7151 12.7798 22.282 12.0367C21.9451 11.5413 21.512 11.145 21.0307 10.8478L19.4426 10.1047C19.2982 10.0552 19.2501 10.0056 19.2982 9.85701C19.3945 9.60932 19.4426 9.36162 19.4907 9.11393C19.6351 8.51947 19.7795 7.92501 19.9239 7.28101C19.8998 7.28101 19.8878 7.26862 19.8757 7.25624C19.8637 7.24386 19.8517 7.23147 19.8276 7.23147C19.5995 7.16744 19.3804 7.11261 19.1664 7.05905C18.8836 6.98829 18.6097 6.91975 18.3357 6.83516C18.2395 6.78562 18.1914 6.83516 18.1914 6.93424L18.047 7.5287C17.8545 8.1727 17.7101 8.76716 17.5657 9.41116C17.5497 9.42768 17.5337 9.44969 17.5176 9.47171C17.4855 9.51574 17.4534 9.55978 17.4214 9.55978C17.2289 9.51024 17.0243 9.4607 16.8198 9.41116C16.6153 9.36162 16.4107 9.31209 16.2182 9.26255C16.2664 9.16347 16.2664 9.11393 16.2664 9.06439C16.3626 8.66809 16.4589 8.2594 16.5551 7.85071L16.5551 7.8507L16.5552 7.85029C16.6514 7.44173 16.7476 7.03318 16.8439 6.63701C16.892 6.53793 16.892 6.48839 16.7476 6.43886C16.2664 6.33978 15.8332 6.2407 15.352 6.09209C15.2076 6.04255 15.1595 6.09209 15.1114 6.2407C15.0151 6.66178 14.9189 7.07047 14.8226 7.47916C14.7264 7.88785 14.6301 8.29655 14.5339 8.71762C14.4857 8.86624 14.4376 8.91578 14.2932 8.86624C14.0286 8.79193 13.7639 8.73001 13.4992 8.66809C13.2345 8.60616 12.9698 8.54424 12.7051 8.46993C12.4404 8.39562 12.1757 8.3337 11.9111 8.27178C11.6831 8.21846 11.4552 8.16514 11.2273 8.10391ZM13.5713 20.3106C13.6195 20.3106 13.6676 20.3602 13.6676 20.3602C13.7882 20.3912 13.9099 20.4234 14.0327 20.456L14.0327 20.456C14.6938 20.631 15.3838 20.8138 16.0738 20.8556C16.6513 20.9051 17.1807 20.9051 17.7101 20.7069C18.6245 20.4097 19.0095 19.1712 18.4801 18.3786C18.2395 17.9823 17.8545 17.7346 17.4695 17.4869C16.6287 17.0061 15.6518 16.8053 14.715 16.6127L14.6301 16.5952C14.4985 16.5501 14.4868 16.5872 14.4494 16.7067L14.4376 16.7439C14.3895 16.9916 14.3293 17.2269 14.2692 17.4622C14.209 17.6975 14.1488 17.9328 14.1007 18.1805C13.991 18.5757 13.897 18.9708 13.8007 19.3752L13.8007 19.3752C13.7281 19.6805 13.6542 19.991 13.5713 20.3106ZM18.143 15.1583C17.9505 15.2079 17.7099 15.2574 17.6136 15.2574C17.0551 15.2574 16.5725 15.1792 16.0741 15.0985C15.8854 15.0679 15.6944 15.0369 15.4961 15.0097C15.3999 14.985 15.3156 14.9602 15.2314 14.9354C15.1472 14.9106 15.063 14.8859 14.9667 14.8611C14.8705 14.8116 14.8224 14.762 14.8705 14.6629C15.1592 13.6226 15.3999 12.6319 15.6405 11.5916C15.6886 11.4429 15.7367 11.3934 15.8811 11.4429C16.0244 11.4823 16.1658 11.5197 16.3058 11.5567C16.8705 11.706 17.4105 11.8487 17.9505 12.0869C18.3836 12.2851 18.8167 12.5823 19.0574 13.0282C19.5386 13.8703 19.0574 14.9602 18.143 15.1583Z" fill="#F6F6F6"/>
</svg>

<svg xmlns="http://www.w3.org/2000/svg" width="32" height="32" viewBox="0 0 32 32" fill="none">
    <path fill="#E75F5F" d="M0 8a8 8 0 0 1 8-8h16a8 8 0 0 1 8 8v16a8 8 0 0 1-8 8H8a8 8 0 0 1-8-8z"/>
    <path fill="#F6F6F6" fill-rule="evenodd" d="m11.117 8.074.011.003a.2.2 0 0 1-.038.026zm.11.03.034-.13-.133.103zm0 0-.182.713c-.072.285-.145.57-.217.842-.048.099 0 .148.097.148l.231.06c.323.08.672.168 1.02.287.433.149.674.595.577.991-.577 2.576-1.203 5.102-1.828 7.629-.049.347-.337.545-.722.446a8 8 0 0 1-1.06-.248c-.144 0-.192 0-.24.149-.144.396-.337.842-.53 1.288-.047.099-.083.186-.12.272a5 5 0 0 1-.12.273c1.155.297 2.262.594 3.369.891 0 .058-.017.1-.03.133a.2.2 0 0 0-.018.066c-.24.792-.433 1.634-.626 2.476-.048.1-.048.149.097.198.48.1.962.199 1.443.347.127.044.143.01.177-.066l.016-.033c.048-.223.108-.446.168-.669s.12-.445.169-.668c.048-.223.108-.446.168-.67.06-.222.12-.445.168-.668.434.1.819.198 1.204.297.069.036.063.072.055.126q-.006.031-.007.073c-.24.792-.433 1.634-.626 2.477-.048.099-.048.148.096.198.217.05.446.111.674.173s.457.124.674.173c.23.095.24.054.283-.123l.006-.025c.096-.396.192-.805.288-1.214.097-.409.193-.817.29-1.214q.07-.223.288-.148c.962.148 1.925.247 2.936.099a2.97 2.97 0 0 0 1.973-1.09c.433-.545.673-1.14.866-1.833.144-.545.192-1.14.096-1.684-.192-.694-.577-1.239-1.155-1.684a4 4 0 0 0-.289-.199 4 4 0 0 1-.288-.198.3.3 0 0 0 .129-.03.2.2 0 0 1 .063-.02c.385-.148.77-.346 1.059-.643.385-.397.577-.892.722-1.437.192-.793.144-1.585-.289-2.328a4.1 4.1 0 0 0-1.251-1.19l-1.588-.742c-.145-.05-.193-.1-.145-.248a4 4 0 0 0 .193-.743c.144-.595.288-1.189.433-1.833-.024 0-.036-.012-.048-.025-.012-.012-.024-.025-.048-.025-.229-.064-.448-.118-.662-.172-.282-.07-.556-.14-.83-.224-.096-.05-.145 0-.145.1l-.144.594a27 27 0 0 0-.481 1.882q-.024.027-.048.06c-.033.045-.065.089-.097.089-.192-.05-.397-.1-.601-.149-.205-.05-.41-.099-.602-.148.048-.1.048-.15.048-.199.097-.396.193-.805.29-1.213.095-.41.192-.818.288-1.214.048-.1.048-.149-.096-.198a14 14 0 0 1-1.396-.347c-.144-.05-.193 0-.24.149q-.145.628-.29 1.238c-.145.61-.192.818-.288 1.239-.048.148-.096.198-.24.148-.265-.074-.53-.136-.795-.198-.264-.062-.53-.124-.794-.198-.265-.074-.53-.136-.794-.198a22 22 0 0 1-.684-.168m2.344 12.207c.049 0 .097.05.097.05q.18.045.365.095c.66.175 1.35.358 2.04.4.578.05 1.108.05 1.637-.15.915-.296 1.3-1.535.77-2.327-.24-.397-.625-.644-1.01-.892-.841-.48-1.818-.682-2.755-.874l-.085-.018c-.132-.045-.143-.008-.18.112l-.012.037c-.049.248-.109.483-.169.718-.06.236-.12.47-.168.718-.11.396-.204.79-.3 1.195a47 47 0 0 1-.23.936m4.572-5.153c-.192.05-.433.1-.53.1-.558 0-1.04-.079-1.539-.16q-.282-.046-.578-.088a8 8 0 0 1-.265-.075 8 8 0 0 0-.264-.074c-.097-.05-.145-.099-.097-.198.29-1.04.53-2.031.77-3.071.049-.15.097-.199.241-.15q.215.06.425.115c.564.149 1.104.292 1.645.53.433.198.866.495 1.106.941.482.842 0 1.932-.914 2.13" clip-rule="evenodd"/>
</svg>
